frontend/public/svg/misc/fire.svg

<svg width="131" height="155" viewBox="0 0 131 155" fill="none" xmlns="http://www.w3.org/2000/svg">
<path d="M99.4406 72.939C101.649 70.7482 103.444 68.7175 105.499 66.9946C107.987 64.869 110.618 62.9173 113.375 61.1531C116.923 58.9288 119.79 60.0459 120.829 64.1605C122.273 69.8706 123.43 75.6556 124.57 81.4366C126.705 92.2846 127.229 103.122 123.64 113.802C117.178 133.038 104.101 145.25 84.375 150.032C76.9522 151.839 69.4392 153.253 61.8672 154.268C23.8502 159.312 2.92808 129.486 0.59874 106.133C-1.14777 88.6353 4.33197 73.239 13.8902 59.2925C20.1556 50.1503 28.0225 42.1089 35.1149 33.5273C39.4231 28.3146 43.8087 23.1499 47.8084 17.7056C50.951 13.4276 52.3838 8.34029 53.2895 3.10731C53.4972 1.89103 54.1561 0.797902 55.1345 0.0461882C55.5939 -0.245226 57.0379 0.914488 57.9817 1.50388C59.5536 2.48445 61.0776 3.54245 62.6305 4.55386C80.181 15.982 90.7421 32.3118 95.7756 52.3583C97.2596 58.2653 97.9691 64.3692 99.0304 70.3826C99.1538 71.0875 99.2568 71.799 99.4406 72.939ZM58.1169 8.08168C56.4688 17.2763 52.0615 24.6371 46.5319 31.3817C41.1978 37.8906 35.7279 44.2873 30.2908 50.7109C21.6698 60.8953 14.8734 72.0234 10.8835 84.9178C2.01576 113.577 20.7286 149.411 58.4444 146.975C68.6505 146.318 78.8158 146.241 88.3964 141.451C103.801 133.749 114.224 122.337 117.856 105.236C120.488 92.8451 116.795 81.0829 114.467 68.6781C108.126 73.6663 103.352 79.1795 100.578 86.2903C100.023 87.7126 99.5436 89.1736 98.8761 90.542C98.0321 92.2708 96.5973 93.2592 94.6191 92.8549C92.4375 92.408 91.6347 90.7796 91.7095 88.7115C91.7883 86.5278 92.0227 84.3508 92.1421 82.1684C93.1975 62.8682 89.0054 44.8379 78.7981 28.356C73.682 19.9956 66.5773 13.0306 58.1169 8.08168Z" fill="black"/>
<path d="M122.988 7.4531C123.764 9.78507 124.522 12.1236 125.322 14.4477C126.982 19.2705 129.194 23.9757 130.229 28.9278C132.356 39.1076 127.024 47.1084 117.037 49.7403C113.662 50.6284 111.312 49.3596 110.042 46.1429C109.487 44.7528 108.779 43.4289 107.931 42.1957C102.496 34.2737 101.201 26.0643 105.708 17.2175C108.639 11.4634 112.945 6.84736 117.465 2.40855C118.298 1.5914 120.199 1.05646 121.202 1.44239C122.23 1.83619 122.921 3.45468 123.453 4.67088C123.774 5.40401 123.512 6.39252 123.512 7.2661L122.988 7.4531ZM116.612 12.4413C109.112 19.806 104.692 31.3937 114.528 41.9515C120.662 40.1105 123.034 36.542 122.509 30.3297C121.965 23.8865 119.061 18.2729 116.612 12.4426V12.4413Z" fill="black"/>
<path d="M69.4695 94.3423C71.1385 90.3885 72.6743 86.7997 74.1675 83.1925C74.9604 81.2767 75.9829 79.6411 78.3287 79.5826C80.4808 79.5315 81.6892 80.9235 82.6205 82.6267C87.1834 90.9707 91.5572 99.4171 93.519 108.819C96.8197 124.632 87.0298 139.624 71.3741 143.4C60.6148 145.994 50.4461 144.269 40.884 139.348C29.9612 133.728 25.0931 123.845 24.3902 112.054C23.0467 89.49 37.9659 66.679 59.0724 58.2667C60.6929 57.6209 62.2432 56.6968 63.9201 56.3286C65.28 56.0299 67.2753 55.8285 68.0924 56.5701C68.6078 57.1514 68.9948 57.8347 69.2283 58.5755C69.4618 59.3163 69.5366 60.098 69.4478 60.8697C69.0455 63.6519 67.9487 66.3285 67.2162 69.0694C64.6191 78.8331 65.2321 86.2477 69.4695 94.3423ZM60.1153 64.7487C59.5733 64.9523 59.0419 65.1829 58.523 65.4398C41.9302 74.4763 33.7739 89.1678 32.007 107.296C30.4738 123 40.3694 135.004 55.8761 138.078C56.616 138.269 57.3899 138.289 58.1384 138.135C63.0485 136.704 68.0393 135.465 72.803 133.64C81.9517 130.134 87.0455 120.994 85.6514 111.341C84.5902 104.008 81.5612 97.3726 78.3746 90.7935C78.309 90.6622 78.0143 90.6478 77.2116 90.3525C76.1004 94.1251 74.8744 97.8203 73.9444 101.588C73.139 104.853 70.0477 106.21 67.3153 104.222C66.6977 103.77 66.1628 103.215 65.7342 102.581C61.5337 96.3061 58.4745 89.5018 58.5014 81.8778C58.5211 76.2674 59.5213 70.6629 60.1153 64.75V64.7487Z" fill="black"/>
</svg>

<svg xmlns="http://www.w3.org/2000/svg" width="131" height="155" fill="none" viewBox="0 0 131 155"><path fill="#000" d="M99.44 72.939c2.209-2.19 4.004-4.221 6.059-5.944a71 71 0 0 1 7.876-5.842c3.548-2.224 6.415-1.107 7.454 3.008 1.444 5.71 2.601 11.495 3.741 17.276 2.135 10.848 2.659 21.685-.93 32.365-6.462 19.236-19.539 31.448-39.265 36.23a217 217 0 0 1-22.508 4.236C23.85 159.312 2.928 129.486.6 106.133c-1.747-17.498 3.733-32.894 13.291-46.84 6.266-9.143 14.133-17.184 21.225-25.766 4.308-5.212 8.694-10.377 12.693-15.821 3.143-4.278 4.576-9.366 5.481-14.599a4.9 4.9 0 0 1 1.846-3.06c.459-.292 1.903.867 2.847 1.457 1.572.98 3.096 2.038 4.648 3.05 17.551 11.428 28.112 27.758 33.146 47.804 1.484 5.907 2.193 12.011 3.254 18.025.124.705.227 1.416.41 2.556M58.118 8.082c-1.648 9.194-6.055 16.555-11.585 23.3C41.198 37.89 35.728 44.287 30.29 50.71c-8.62 10.185-15.417 21.313-19.406 34.208-8.868 28.659 9.845 64.493 47.56 62.057 10.206-.657 20.372-.734 29.952-5.524 15.405-7.702 25.828-19.114 29.46-36.215 2.632-12.39-1.061-24.153-3.389-36.558-6.341 4.988-11.115 10.502-13.889 17.612-.555 1.423-1.034 2.884-1.702 4.252-.844 1.729-2.279 2.717-4.257 2.313-2.181-.447-2.984-2.075-2.91-4.144.08-2.183.314-4.36.433-6.543 1.056-19.3-3.137-37.33-13.344-53.812A59.4 59.4 0 0 0 58.117 8.082m64.871-.629c.776 2.332 1.534 4.67 2.334 6.995 1.66 4.822 3.872 9.528 4.907 14.48 2.127 10.18-3.205 18.18-13.192 20.812-3.375.888-5.725-.38-6.995-3.597a20 20 0 0 0-2.111-3.947c-5.435-7.922-6.73-16.132-2.223-24.978 2.931-5.755 7.237-10.37 11.757-14.81.833-.817 2.734-1.352 3.737-.966 1.028.394 1.719 2.013 2.251 3.229.321.733.059 1.722.059 2.595zm-6.376 4.988c-7.5 7.365-11.92 18.953-2.084 29.51 6.134-1.84 8.506-5.409 7.981-11.621-.544-6.443-3.448-12.057-5.897-17.887z"/><path fill="#000" d="M69.47 94.342c1.668-3.954 3.204-7.542 4.698-11.15.792-1.915 1.815-3.55 4.16-3.61 2.153-.05 3.361 1.342 4.293 3.045 4.562 8.344 8.936 16.79 10.898 26.192 3.3 15.813-6.49 30.805-22.145 34.581-10.76 2.594-20.928.869-30.49-4.052-10.923-5.62-15.79-15.503-16.494-27.294-1.343-22.564 13.576-45.375 34.682-53.787 1.62-.646 3.171-1.57 4.848-1.938 1.36-.3 3.355-.5 4.172.241a5.53 5.53 0 0 1 1.356 4.3c-.402 2.782-1.5 5.459-2.232 8.2-2.597 9.763-1.984 17.178 2.254 25.272M60.114 64.75a17 17 0 0 0-1.592.69c-16.593 9.037-24.75 23.729-26.516 41.857-1.533 15.704 8.362 27.708 23.87 30.782a5 5 0 0 0 2.261.057c4.91-1.431 9.901-2.67 14.665-4.495 9.149-3.506 14.243-12.646 12.848-22.299-1.06-7.333-4.09-13.968-7.276-20.547-.066-.132-.36-.146-1.163-.441-1.112 3.772-2.338 7.467-3.268 11.235-.805 3.265-3.896 4.622-6.629 2.634a6.7 6.7 0 0 1-1.58-1.641c-4.201-6.275-7.26-13.08-7.234-20.703.02-5.61 1.02-11.215 1.614-17.128z"/></svg>
